symbols/web/home_repair_service/materialsymbolsoutlined/home_repair_service_wght100gradN25_40px.svg

<svg xmlns="http://www.w3.org/2000/svg" height="40" width="40"><path d="M5.542 31.125V17.792q0-.959.646-1.625.645-.667 1.645-.667h4.959v-3.125q0-.917.646-1.604.645-.688 1.645-.688h9.875q.917 0 1.604.688.688.687.688 1.604V15.5h4.958q.917 0 1.604.688.688.687.688 1.604v13.333Zm.958-.958h27.042v-6.375h-4.709v1.666h-.958v-1.666H12.167v1.666h-.959v-1.666H6.5Zm0-12.375v5.041h4.708v-1.666h.959v1.666h15.708v-1.666h.958v1.666h4.709v-5.041q0-.5-.417-.917-.417-.417-.917-.417H7.833q-.541 0-.937.417t-.396.917Zm7.25-2.292h12.542v-3.125q0-.5-.417-.917-.417-.416-.917-.416h-9.875q-.541 0-.937.416-.396.417-.396.917Z"/></svg>

<svg xmlns="http://www.w3.org/2000/svg" height="40" width="40"><path d="M5.542 31.125V17.792Q5.542 16.833 6.188 16.167Q6.833 15.5 7.833 15.5H12.792V12.375Q12.792 11.458 13.438 10.771Q14.083 10.083 15.083 10.083H24.958Q25.875 10.083 26.562 10.771Q27.25 11.458 27.25 12.375V15.5H32.208Q33.125 15.5 33.812 16.188Q34.5 16.875 34.5 17.792V31.125ZM6.5 30.167H33.542V23.792H28.833V25.458H27.875V23.792H12.167V25.458H11.208V23.792H6.5ZM6.5 17.792V22.833H11.208V21.167H12.167V22.833H27.875V21.167H28.833V22.833H33.542V17.792Q33.542 17.292 33.125 16.875Q32.708 16.458 32.208 16.458H7.833Q7.292 16.458 6.896 16.875Q6.5 17.292 6.5 17.792ZM13.75 15.5H26.292V12.375Q26.292 11.875 25.875 11.458Q25.458 11.042 24.958 11.042H15.083Q14.542 11.042 14.146 11.458Q13.75 11.875 13.75 12.375Z"/></svg>
